assets/img/icons/duotone-icons/Devices/Display#2.svg

<?xml version="1.0" encoding="UTF-8"?>
<svg width="24px" height="24px" viewBox="0 0 24 24" version="1.1" xmlns="http://www.w3.org/2000/svg" xmlns:xlink="http://www.w3.org/1999/xlink">
    <!-- Generator: Sketch 52.2 (67145) - http://www.bohemiancoding.com/sketch -->
    <title>Stockholm-icons / Devices / Display#2</title>
    <desc>Created with Sketch.</desc>
    <g id="Stockholm-icons-/-Devices-/-Display#2" stroke="none" stroke-width="1" fill="none" fill-rule="evenodd">
        <rect id="bound" x="0" y="0" width="24" height="24"></rect>
        <polygon id="Combined-Shape" fill="#335EEA" opacity="0.3" points="6 7 6 15 18 15 18 7"></polygon>
        <path d="M11,19 L11,16 C11,15.4477153 11.4477153,15 12,15 C12.5522847,15 13,15.4477153 13,16 L13,19 L14.5,19 C14.7761424,19 15,19.2238576 15,19.5 C15,19.7761424 14.7761424,20 14.5,20 L9.5,20 C9.22385763,20 9,19.7761424 9,19.5 C9,19.2238576 9.22385763,19 9.5,19 L11,19 Z" id="Combined-Shape" fill="#335EEA" opacity="0.3"></path>
        <path d="M6,7 L6,15 L18,15 L18,7 L6,7 Z M6,5 L18,5 C19.1045695,5 20,5.8954305 20,7 L20,15 C20,16.1045695 19.1045695,17 18,17 L6,17 C4.8954305,17 4,16.1045695 4,15 L4,7 C4,5.8954305 4.8954305,5 6,5 Z" id="Combined-Shape" fill="#335EEA"></path>
    </g>
</svg>

<svg width="24" height="24" viewBox="0 0 24 24" xmlns="http://www.w3.org/2000/svg"><g fill="none" fill-rule="evenodd"><path d="M0 0h24v24H0z"/><path fill="#335EEA" opacity=".3" d="M6 7v8h12V7z"/><path d="M11 19v-3a1 1 0 012 0v3h1.5a.5.5 0 110 1h-5a.5.5 0 110-1H11z" fill="#335EEA" opacity=".3"/><path d="M6 7v8h12V7H6zm0-2h12a2 2 0 012 2v8a2 2 0 01-2 2H6a2 2 0 01-2-2V7a2 2 0 012-2z" fill="#335EEA"/></g></svg>
